content/sets-and-functions/images/restriction.svg

<svg height="179.637pt" viewBox="0 0 259 179.637" width="259pt" xmlns="http://www.w3.org/2000/svg" xmlns:xlink="http://www.w3.org/1999/xlink"><clipPath id="a"><path d="m160 1h99v178.636719h-99zm0 0"/></clipPath><symbol id="b" overflow="visible"><path d="m2.4375-1.59375c-.5.84375-.984375 1.140625-1.671875 1.171875-.15625.015625-.28125.015625-.28125.28125 0 .078125.078125.140625.171875.140625.265625 0 .90625-.03125 1.171875-.03125.40625 0 .875.03125 1.265625.03125.09375 0 .265625 0 .265625-.265625 0-.140625-.125-.15625-.203125-.15625-.328125-.015625-.609375-.140625-.609375-.484375 0-.203125.09375-.359375.28125-.671875l1.09375-1.8125h3.65625c.015625.140625.015625.25.03125.375.03125.375.203125 1.875.203125 2.140625 0 .4375-.734375.453125-.953125.453125-.15625 0-.3125 0-.3125.265625 0 .15625.125.15625.203125.15625.25 0 .53125-.03125.78125-.03125h.8125c.875 0 1.515625.03125 1.53125.03125.09375 0 .25 0 .25-.265625 0-.15625-.125-.15625-.34375-.15625-.78125 0-.796875-.125-.84375-.546875l-.875-8.953125c-.03125-.296875-.09375-.3125-.25-.3125-.140625 0-.21875.015625-.359375.234375zm1.71875-2.203125 2.890625-4.828125.484375 4.828125zm0 0"/></symbol><symbol id="c" overflow="visible"><path d="m5.25-8.828125c.125-.53125.1875-.546875.75-.546875h1.859375c1.625 0 1.625 1.375 1.625 1.5 0 1.15625-1.171875 2.640625-3.0625 2.640625h-2.0625zm2.421875 3.703125c1.5625-.28125 2.984375-1.375 2.984375-2.6875 0-1.125-.984375-1.984375-2.609375-1.984375h-4.609375c-.265625 0-.390625 0-.390625.265625 0 .15625.125.15625.34375.15625.875 0 .875.109375.875.265625 0 .03125 0 .109375-.0625.328125l-1.9375 7.71875c-.125.5-.15625.640625-1.15625.640625-.28125 0-.421875 0-.421875.265625 0 .15625.09375.15625.375.15625h4.921875c2.1875 0 3.890625-1.65625 3.890625-3.109375 0-1.171875-1.046875-1.890625-2.203125-2.015625zm-2.03125 4.703125h-1.9375c-.203125 0-.234375 0-.3125-.015625-.15625 0-.171875-.03125-.171875-.15625 0-.09375.015625-.1875.046875-.3125l1.015625-4.046875h2.6875c1.6875 0 1.6875 1.578125 1.6875 1.703125 0 1.375-1.234375 2.828125-3.015625 2.828125zm0 0"/></symbol><symbol id="d" overflow="visible"><path d="m6.390625-5.765625c.296875 0 .40625 0 .40625-.265625 0-.15625-.109375-.15625-.375-.15625h-1.15625c.265625-1.46875.46875-2.484375.59375-2.953125.078125-.34375.375-.671875.75-.671875.296875 0 .609375.125.75.265625-.5625.046875-.734375.46875-.734375.71875 0 .28125.21875.453125.484375.453125.296875 0 .71875-.25.71875-.796875 0-.59375-.59375-.921875-1.234375-.921875-.609375 0-1.21875.453125-1.5 1.015625-.265625.5-.40625 1.015625-.734375 2.890625h-.953125c-.28125 0-.421875 0-.421875.265625 0 .15625.078125.15625.375.15625h.921875c-.265625 1.328125-.859375 4.578125-1.1875 6.109375-.234375 1.25-.453125 2.296875-1.171875 2.296875-.046875 0-.453125 0-.71875-.28125.734375-.046875.734375-.6875.734375-.703125 0-.28125-.21875-.453125-.484375-.453125-.296875 0-.71875.25-.71875.796875 0 .609375.625.921875 1.1875.921875 1.46875 0 2.0625-2.625 2.21875-3.34375.265625-1.09375.96875-4.90625 1.03125-5.34375zm0 0"/></symbol><symbol id="e" overflow="visible"><path d="m2.515625-4.734375c.0625-.125.09375-.203125.09375-.3125 0-.28125-.25-.53125-.5625-.53125-.28125 0-.46875.1875-.53125.453125l-1.1875 4.359375c0 .015625-.03125.125-.03125.140625 0 .109375.25.171875.328125.171875.0625 0 .078125-.03125.125-.15625zm0 0"/></symbol><symbol id="f" overflow="visible"><path d="m2.28125-10.234375c0-.265625 0-.515625-.28125-.515625-.296875 0-.296875.25-.296875.515625v13.296875c0 .265625 0 .515625.296875.515625.28125 0 .28125-.25.28125-.515625zm0 0"/></symbol><symbol id="g" overflow="visible"><path d="m1.78125-1.140625c-.390625.65625-.78125.796875-1.21875.828125-.125.015625-.21875.015625-.21875.203125 0 .0625.0625.109375.140625.109375.265625 0 .578125-.03125.84375-.03125.34375 0 .6875.03125 1 .03125.0625 0 .1875 0 .1875-.1875 0-.109375-.078125-.125-.15625-.125-.21875-.015625-.46875-.09375-.46875-.34375 0-.125.0625-.234375.140625-.375l.765625-1.265625h2.5c.015625.203125.15625 1.5625.15625 1.65625 0 .296875-.515625.328125-.71875.328125-.140625 0-.234375 0-.234375.203125 0 .109375.109375.109375.140625.109375.40625 0 .828125-.03125 1.234375-.03125.25 0 .890625.03125 1.140625.03125.046875 0 .171875 0 .171875-.203125 0-.109375-.09375-.109375-.234375-.109375-.609375 0-.609375-.0625-.640625-.359375l-.609375-6.21875c-.015625-.203125-.015625-.25-.1875-.25-.15625 0-.203125.078125-.265625.171875zm1.203125-1.46875 1.953125-3.296875.328125 3.296875zm0 0"/></symbol><symbol id="h" overflow="visible"><path d="m2.015625-3.296875c.0625-.109375.0625-.171875.0625-.21875 0-.21875-.1875-.375-.40625-.375-.265625 0-.34375.21875-.375.328125l-.921875 3.015625c-.015625.015625-.046875.09375-.046875.109375 0 .078125.21875.15625.28125.15625.046875 0 .046875-.015625.09375-.125zm0 0"/></symbol><path d="m267.368 690.7c0 48.601563-21.488281 88-48 88s-48-39.398437-48-88c0-48.601562 21.488281-88 48-88s48 39.398438 48 88" style="fill-rule:evenodd;fill:#add8e6;fill-opacity:.3;stroke-width:2;stroke-linejoin:round;stroke:#bebebe;stroke-opacity:.3;stroke-miterlimit:10" transform="matrix(1 0 0 -1 -169.868 780.2)"/><path d="m257.5 90.136719c0-48.601563-21.488281-88-48-88s-48 39.398437-48 88c0 48.601562 21.488281 88 48 88s48-39.398438 48-88" fill="#ffc0cb" fill-opacity=".3" fill-rule="evenodd"/><g clip-path="url(#a)"><path d="m427.368 690.063281c0 48.601563-21.488281 88-48 88s-48-39.398437-48-88c0-48.601562 21.488281-88 48-88s48 39.398438 48 88" style="fill:none;stroke-width:2;stroke-linejoin:round;stroke:#8b0000;stroke-opacity:.3;stroke-miterlimit:10" transform="matrix(1 0 0 -1 -169.868 780.2)"/></g><g fill-rule="evenodd"><path d="m51.300781 49.496094c0-.992188-.808593-1.800782-1.800781-1.800782s-1.800781.808594-1.800781 1.800782c0 .996094.808593 1.800781 1.800781 1.800781s1.800781-.804687 1.800781-1.800781" fill="#bebebe"/><path d="m19.300781 81.496094c0-.992188-.808593-1.800782-1.800781-1.800782s-1.800781.808594-1.800781 1.800782c0 .996094.808593 1.800781 1.800781 1.800781s1.800781-.804687 1.800781-1.800781" fill="#00008b"/><path d="m67.300781 113.496094c0-.992188-.808593-1.800782-1.800781-1.800782s-1.800781.808594-1.800781 1.800782c0 .996094.808593 1.800781 1.800781 1.800781s1.800781-.804687 1.800781-1.800781" fill="#00008b"/><path d="m195.300781 49.496094c0-.992188-.808593-1.800782-1.800781-1.800782s-1.800781.808594-1.800781 1.800782c0 .996094.808593 1.800781 1.800781 1.800781s1.800781-.804687 1.800781-1.800781" fill="#8b0000"/><path d="m243.300781 81.496094c0-.992188-.808593-1.800782-1.800781-1.800782s-1.800781.808594-1.800781 1.800782c0 .996094.808593 1.800781 1.800781 1.800781s1.800781-.804687 1.800781-1.800781" fill="#8b0000"/><path d="m211.300781 113.496094c0-.992188-.808593-1.800782-1.800781-1.800782s-1.800781.808594-1.800781 1.800782c0 .996094.808593 1.800781 1.800781 1.800781s1.800781-.804687 1.800781-1.800781" fill="#8b0000"/><path d="m225.039062 146.035156c0-.992187-.808593-1.796875-1.800781-1.796875-.996093 0-1.800781.804688-1.800781 1.796875 0 .996094.804688 1.800782 1.800781 1.800782.992188 0 1.800781-.804688 1.800781-1.800782" fill="#8b0000"/></g><path d="m223.043781 732.078906c65.257813 11.683594 110.328125 11.996094 135.214844.9375" style="fill:none;stroke-width:2;stroke-linejoin:round;stroke:#bebebe;stroke-opacity:.3;stroke-miterlimit:10" transform="matrix(1 0 0 -1 -169.868 780.2)"/><path d="m358.258625 733.016406-5.453125 4.972657-1.890625-4.261719zm0 0" style="fill-rule:evenodd;fill:#bebebe;stroke-width:2;stroke-linejoin:round;stroke:#bebebe;stroke-miterlimit:10" transform="matrix(1 0 0 -1 -169.868 780.2)"/><path d="m189.977375 698.434375c72.972656-2.085937 129.441406 7.683594 169.410156 29.300781" fill="none" stroke="#2e8b57" stroke-linejoin="round" stroke-miterlimit="10" stroke-width="2" transform="matrix(1 0 0 -1 -169.868 780.2)"/><path d="m359.387531 727.735156-7.265625-1.277343 2.21875-4.101563zm0 0" style="fill-rule:evenodd;fill:#2e8b57;stroke-width:2;stroke-linejoin:round;stroke:#2e8b57;stroke-miterlimit:10" transform="matrix(1 0 0 -1 -169.868 780.2)"/><path d="m238.414875 665.657031c55.964844-10.722656 101.757813-10.695312 137.375.089844" fill="none" stroke="#2e8b57" stroke-linejoin="round" stroke-miterlimit="10" stroke-width="2" transform="matrix(1 0 0 -1 -169.868 780.2)"/><path d="m375.789875 665.746875-7.375.203125 1.351563-4.460937zm0 0" style="fill-rule:evenodd;fill:#2e8b57;stroke-width:2;stroke-linejoin:round;stroke:#2e8b57;stroke-miterlimit:10" transform="matrix(1 0 0 -1 -169.868 780.2)"/><use fill="#bebebe" x="83.365" xlink:href="#b" y="178.53"/><use fill="#8b0000" x="247.135" xlink:href="#c" y="177.892"/><use fill="#bebebe" fill-opacity=".3" x="122.237" xlink:href="#d" y="22.408"/><path d="m193.875813 708.891406c-10.375 1.714844-17.074219-2.371093-15.113282-11.195312 1.960938-8.820313 12.582032-22.382813 27.449219-30.714844 14.871094-8.335937 33.984375-11.4375 39.050781-6.375 5.066407 5.066406-3.921875 18.300781-15.441406 28.675781s-25.570312 17.890625-35.945312 19.609375zm0 0" fill="none" stroke="#000080" stroke-linejoin="round" stroke-miterlimit="10" stroke-width="1.2" transform="matrix(1 0 0 -1 -169.868 780.2)"/><use fill="#000080" x="26.704" xlink:href="#b" y="130.703"/><use fill="#000080" x="37.234" xlink:href="#e" y="125.497"/><use fill="#2e8b57" x="121.524" xlink:href="#d" y="99.817"/><use fill="#2e8b57" x="129.979" xlink:href="#f" y="99.817"/><use fill="#2e8b57" x="133.964" xlink:href="#g" y="103.902"/><use fill="#2e8b57" x="141.436" xlink:href="#h" y="101.024"/></svg>

<?xml version="1.0" encoding="UTF-8"?>
<svg xmlns="http://www.w3.org/2000/svg" xmlns:xlink="http://www.w3.org/1999/xlink" width="259pt" height="179.637pt" viewBox="0 0 259 179.637" version="1.1">
<defs>
<g>
<symbol overflow="visible" id="glyph0-0">
<path style="stroke:none;" d=""/>
</symbol>
<symbol overflow="visible" id="glyph0-1">
<path style="stroke:none;" d="M 2.4375 -1.59375 C 1.9375 -0.75 1.453125 -0.453125 0.765625 -0.421875 C 0.609375 -0.40625 0.484375 -0.40625 0.484375 -0.140625 C 0.484375 -0.0625 0.5625 0 0.65625 0 C 0.921875 0 1.5625 -0.03125 1.828125 -0.03125 C 2.234375 -0.03125 2.703125 0 3.09375 0 C 3.1875 0 3.359375 0 3.359375 -0.265625 C 3.359375 -0.40625 3.234375 -0.421875 3.15625 -0.421875 C 2.828125 -0.4375 2.546875 -0.5625 2.546875 -0.90625 C 2.546875 -1.109375 2.640625 -1.265625 2.828125 -1.578125 L 3.921875 -3.390625 L 7.578125 -3.390625 C 7.59375 -3.25 7.59375 -3.140625 7.609375 -3.015625 C 7.640625 -2.640625 7.8125 -1.140625 7.8125 -0.875 C 7.8125 -0.4375 7.078125 -0.421875 6.859375 -0.421875 C 6.703125 -0.421875 6.546875 -0.421875 6.546875 -0.15625 C 6.546875 0 6.671875 0 6.75 0 C 7 0 7.28125 -0.03125 7.53125 -0.03125 L 8.34375 -0.03125 C 9.21875 -0.03125 9.859375 0 9.875 0 C 9.96875 0 10.125 0 10.125 -0.265625 C 10.125 -0.421875 10 -0.421875 9.78125 -0.421875 C 9 -0.421875 8.984375 -0.546875 8.9375 -0.96875 L 8.0625 -9.921875 C 8.03125 -10.21875 7.96875 -10.234375 7.8125 -10.234375 C 7.671875 -10.234375 7.59375 -10.21875 7.453125 -10 Z M 4.15625 -3.796875 L 7.046875 -8.625 L 7.53125 -3.796875 Z M 4.15625 -3.796875 "/>
</symbol>
<symbol overflow="visible" id="glyph0-2">
<path style="stroke:none;" d="M 5.25 -8.828125 C 5.375 -9.359375 5.4375 -9.375 6 -9.375 L 7.859375 -9.375 C 9.484375 -9.375 9.484375 -8 9.484375 -7.875 C 9.484375 -6.71875 8.3125 -5.234375 6.421875 -5.234375 L 4.359375 -5.234375 Z M 7.671875 -5.125 C 9.234375 -5.40625 10.65625 -6.5 10.65625 -7.8125 C 10.65625 -8.9375 9.671875 -9.796875 8.046875 -9.796875 L 3.4375 -9.796875 C 3.171875 -9.796875 3.046875 -9.796875 3.046875 -9.53125 C 3.046875 -9.375 3.171875 -9.375 3.390625 -9.375 C 4.265625 -9.375 4.265625 -9.265625 4.265625 -9.109375 C 4.265625 -9.078125 4.265625 -9 4.203125 -8.78125 L 2.265625 -1.0625 C 2.140625 -0.5625 2.109375 -0.421875 1.109375 -0.421875 C 0.828125 -0.421875 0.6875 -0.421875 0.6875 -0.15625 C 0.6875 0 0.78125 0 1.0625 0 L 5.984375 0 C 8.171875 0 9.875 -1.65625 9.875 -3.109375 C 9.875 -4.28125 8.828125 -5 7.671875 -5.125 Z M 5.640625 -0.421875 L 3.703125 -0.421875 C 3.5 -0.421875 3.46875 -0.421875 3.390625 -0.4375 C 3.234375 -0.4375 3.21875 -0.46875 3.21875 -0.59375 C 3.21875 -0.6875 3.234375 -0.78125 3.265625 -0.90625 L 4.28125 -4.953125 L 6.96875 -4.953125 C 8.65625 -4.953125 8.65625 -3.375 8.65625 -3.25 C 8.65625 -1.875 7.421875 -0.421875 5.640625 -0.421875 Z M 5.640625 -0.421875 "/>
</symbol>
<symbol overflow="visible" id="glyph0-3">
<path style="stroke:none;" d="M 6.390625 -5.765625 C 6.6875 -5.765625 6.796875 -5.765625 6.796875 -6.03125 C 6.796875 -6.1875 6.6875 -6.1875 6.421875 -6.1875 L 5.265625 -6.1875 C 5.53125 -7.65625 5.734375 -8.671875 5.859375 -9.140625 C 5.9375 -9.484375 6.234375 -9.8125 6.609375 -9.8125 C 6.90625 -9.8125 7.21875 -9.6875 7.359375 -9.546875 C 6.796875 -9.5 6.625 -9.078125 6.625 -8.828125 C 6.625 -8.546875 6.84375 -8.375 7.109375 -8.375 C 7.40625 -8.375 7.828125 -8.625 7.828125 -9.171875 C 7.828125 -9.765625 7.234375 -10.09375 6.59375 -10.09375 C 5.984375 -10.09375 5.375 -9.640625 5.09375 -9.078125 C 4.828125 -8.578125 4.6875 -8.0625 4.359375 -6.1875 L 3.40625 -6.1875 C 3.125 -6.1875 2.984375 -6.1875 2.984375 -5.921875 C 2.984375 -5.765625 3.0625 -5.765625 3.359375 -5.765625 L 4.28125 -5.765625 C 4.015625 -4.4375 3.421875 -1.1875 3.09375 0.34375 C 2.859375 1.59375 2.640625 2.640625 1.921875 2.640625 C 1.875 2.640625 1.46875 2.640625 1.203125 2.359375 C 1.9375 2.3125 1.9375 1.671875 1.9375 1.65625 C 1.9375 1.375 1.71875 1.203125 1.453125 1.203125 C 1.15625 1.203125 0.734375 1.453125 0.734375 2 C 0.734375 2.609375 1.359375 2.921875 1.921875 2.921875 C 3.390625 2.921875 3.984375 0.296875 4.140625 -0.421875 C 4.40625 -1.515625 5.109375 -5.328125 5.171875 -5.765625 Z M 6.390625 -5.765625 "/>
</symbol>
<symbol overflow="visible" id="glyph1-0">
<path style="stroke:none;" d=""/>
</symbol>
<symbol overflow="visible" id="glyph1-1">
<path style="stroke:none;" d="M 2.515625 -4.734375 C 2.578125 -4.859375 2.609375 -4.9375 2.609375 -5.046875 C 2.609375 -5.328125 2.359375 -5.578125 2.046875 -5.578125 C 1.765625 -5.578125 1.578125 -5.390625 1.515625 -5.125 L 0.328125 -0.765625 C 0.328125 -0.75 0.296875 -0.640625 0.296875 -0.625 C 0.296875 -0.515625 0.546875 -0.453125 0.625 -0.453125 C 0.6875 -0.453125 0.703125 -0.484375 0.75 -0.609375 Z M 2.515625 -4.734375 "/>
</symbol>
<symbol overflow="visible" id="glyph2-0">
<path style="stroke:none;" d=""/>
</symbol>
<symbol overflow="visible" id="glyph2-1">
<path style="stroke:none;" d="M 2.28125 -10.234375 C 2.28125 -10.5 2.28125 -10.75 2 -10.75 C 1.703125 -10.75 1.703125 -10.5 1.703125 -10.234375 L 1.703125 3.0625 C 1.703125 3.328125 1.703125 3.578125 2 3.578125 C 2.28125 3.578125 2.28125 3.328125 2.28125 3.0625 Z M 2.28125 -10.234375 "/>
</symbol>
<symbol overflow="visible" id="glyph3-0">
<path style="stroke:none;" d=""/>
</symbol>
<symbol overflow="visible" id="glyph3-1">
<path style="stroke:none;" d="M 1.78125 -1.140625 C 1.390625 -0.484375 1 -0.34375 0.5625 -0.3125 C 0.4375 -0.296875 0.34375 -0.296875 0.34375 -0.109375 C 0.34375 -0.046875 0.40625 0 0.484375 0 C 0.75 0 1.0625 -0.03125 1.328125 -0.03125 C 1.671875 -0.03125 2.015625 0 2.328125 0 C 2.390625 0 2.515625 0 2.515625 -0.1875 C 2.515625 -0.296875 2.4375 -0.3125 2.359375 -0.3125 C 2.140625 -0.328125 1.890625 -0.40625 1.890625 -0.65625 C 1.890625 -0.78125 1.953125 -0.890625 2.03125 -1.03125 L 2.796875 -2.296875 L 5.296875 -2.296875 C 5.3125 -2.09375 5.453125 -0.734375 5.453125 -0.640625 C 5.453125 -0.34375 4.9375 -0.3125 4.734375 -0.3125 C 4.59375 -0.3125 4.5 -0.3125 4.5 -0.109375 C 4.5 0 4.609375 0 4.640625 0 C 5.046875 0 5.46875 -0.03125 5.875 -0.03125 C 6.125 -0.03125 6.765625 0 7.015625 0 C 7.0625 0 7.1875 0 7.1875 -0.203125 C 7.1875 -0.3125 7.09375 -0.3125 6.953125 -0.3125 C 6.34375 -0.3125 6.34375 -0.375 6.3125 -0.671875 L 5.703125 -6.890625 C 5.6875 -7.09375 5.6875 -7.140625 5.515625 -7.140625 C 5.359375 -7.140625 5.3125 -7.0625 5.25 -6.96875 Z M 2.984375 -2.609375 L 4.9375 -5.90625 L 5.265625 -2.609375 Z M 2.984375 -2.609375 "/>
</symbol>
<symbol overflow="visible" id="glyph4-0">
<path style="stroke:none;" d=""/>
</symbol>
<symbol overflow="visible" id="glyph4-1">
<path style="stroke:none;" d="M 2.015625 -3.296875 C 2.078125 -3.40625 2.078125 -3.46875 2.078125 -3.515625 C 2.078125 -3.734375 1.890625 -3.890625 1.671875 -3.890625 C 1.40625 -3.890625 1.328125 -3.671875 1.296875 -3.5625 L 0.375 -0.546875 C 0.359375 -0.53125 0.328125 -0.453125 0.328125 -0.4375 C 0.328125 -0.359375 0.546875 -0.28125 0.609375 -0.28125 C 0.65625 -0.28125 0.65625 -0.296875 0.703125 -0.40625 Z M 2.015625 -3.296875 "/>
</symbol>
</g>
<clipPath id="clip1">
  <path d="M 160 1 L 259 1 L 259 179.636719 L 160 179.636719 Z M 160 1 "/>
</clipPath>
</defs>
<g id="surface1">
<path style="fill-rule:evenodd;fill:rgb(67.799377%,84.698486%,90.19928%);fill-opacity:0.3;stroke-width:2;stroke-linecap:butt;stroke-linejoin:round;stroke:rgb(74.499512%,74.499512%,74.499512%);stroke-opacity:0.3;stroke-miterlimit:10;" d="M 267.368 690.7 C 267.368 739.301563 245.879719 778.7 219.368 778.7 C 192.856281 778.7 171.368 739.301563 171.368 690.7 C 171.368 642.098438 192.856281 602.7 219.368 602.7 C 245.879719 602.7 267.368 642.098438 267.368 690.7 " transform="matrix(1,0,0,-1,-169.868,780.2)"/>
<path style=" stroke:none;fill-rule:evenodd;fill:rgb(100%,75.299072%,79.598999%);fill-opacity:0.3;" d="M 257.5 90.136719 C 257.5 41.535156 236.011719 2.136719 209.5 2.136719 C 182.988281 2.136719 161.5 41.535156 161.5 90.136719 C 161.5 138.738281 182.988281 178.136719 209.5 178.136719 C 236.011719 178.136719 257.5 138.738281 257.5 90.136719 "/>
<g clip-path="url(#clip1)" clip-rule="nonzero">
<path style="fill:none;stroke-width:2;stroke-linecap:butt;stroke-linejoin:round;stroke:rgb(54.499817%,0%,0%);stroke-opacity:0.3;stroke-miterlimit:10;" d="M 427.368 690.063281 C 427.368 738.664844 405.879719 778.063281 379.368 778.063281 C 352.856281 778.063281 331.368 738.664844 331.368 690.063281 C 331.368 641.461719 352.856281 602.063281 379.368 602.063281 C 405.879719 602.063281 427.368 641.461719 427.368 690.063281 " transform="matrix(1,0,0,-1,-169.868,780.2)"/>
</g>
<path style=" stroke:none;fill-rule:evenodd;fill:rgb(74.499512%,74.499512%,74.499512%);fill-opacity:1;" d="M 51.300781 49.496094 C 51.300781 48.503906 50.492188 47.695312 49.5 47.695312 C 48.507812 47.695312 47.699219 48.503906 47.699219 49.496094 C 47.699219 50.492188 48.507812 51.296875 49.5 51.296875 C 50.492188 51.296875 51.300781 50.492188 51.300781 49.496094 "/>
<path style=" stroke:none;fill-rule:evenodd;fill:rgb(0%,0%,54.499817%);fill-opacity:1;" d="M 19.300781 81.496094 C 19.300781 80.503906 18.492188 79.695312 17.5 79.695312 C 16.507812 79.695312 15.699219 80.503906 15.699219 81.496094 C 15.699219 82.492188 16.507812 83.296875 17.5 83.296875 C 18.492188 83.296875 19.300781 82.492188 19.300781 81.496094 "/>
<path style=" stroke:none;fill-rule:evenodd;fill:rgb(0%,0%,54.499817%);fill-opacity:1;" d="M 67.300781 113.496094 C 67.300781 112.503906 66.492188 111.695312 65.5 111.695312 C 64.507812 111.695312 63.699219 112.503906 63.699219 113.496094 C 63.699219 114.492188 64.507812 115.296875 65.5 115.296875 C 66.492188 115.296875 67.300781 114.492188 67.300781 113.496094 "/>
<path style=" stroke:none;fill-rule:evenodd;fill:rgb(54.499817%,0%,0%);fill-opacity:1;" d="M 195.300781 49.496094 C 195.300781 48.503906 194.492188 47.695312 193.5 47.695312 C 192.507812 47.695312 191.699219 48.503906 191.699219 49.496094 C 191.699219 50.492188 192.507812 51.296875 193.5 51.296875 C 194.492188 51.296875 195.300781 50.492188 195.300781 49.496094 "/>
<path style=" stroke:none;fill-rule:evenodd;fill:rgb(54.499817%,0%,0%);fill-opacity:1;" d="M 243.300781 81.496094 C 243.300781 80.503906 242.492188 79.695312 241.5 79.695312 C 240.507812 79.695312 239.699219 80.503906 239.699219 81.496094 C 239.699219 82.492188 240.507812 83.296875 241.5 83.296875 C 242.492188 83.296875 243.300781 82.492188 243.300781 81.496094 "/>
<path style=" stroke:none;fill-rule:evenodd;fill:rgb(54.499817%,0%,0%);fill-opacity:1;" d="M 211.300781 113.496094 C 211.300781 112.503906 210.492188 111.695312 209.5 111.695312 C 208.507812 111.695312 207.699219 112.503906 207.699219 113.496094 C 207.699219 114.492188 208.507812 115.296875 209.5 115.296875 C 210.492188 115.296875 211.300781 114.492188 211.300781 113.496094 "/>
<path style=" stroke:none;fill-rule:evenodd;fill:rgb(54.499817%,0%,0%);fill-opacity:1;" d="M 225.039062 146.035156 C 225.039062 145.042969 224.230469 144.238281 223.238281 144.238281 C 222.242188 144.238281 221.4375 145.042969 221.4375 146.035156 C 221.4375 147.03125 222.242188 147.835938 223.238281 147.835938 C 224.230469 147.835938 225.039062 147.03125 225.039062 146.035156 "/>
<path style="fill:none;stroke-width:2;stroke-linecap:butt;stroke-linejoin:round;stroke:rgb(74.499512%,74.499512%,74.499512%);stroke-opacity:0.3;stroke-miterlimit:10;" d="M 223.043781 732.078906 C 288.301594 743.7625 333.371906 744.075 358.258625 733.016406 " transform="matrix(1,0,0,-1,-169.868,780.2)"/>
<path style="fill-rule:evenodd;fill:rgb(74.499512%,74.499512%,74.499512%);fill-opacity:1;stroke-width:2;stroke-linecap:butt;stroke-linejoin:round;stroke:rgb(74.499512%,74.499512%,74.499512%);stroke-opacity:1;stroke-miterlimit:10;" d="M 358.258625 733.016406 L 352.8055 737.989063 L 350.914875 733.727344 Z M 358.258625 733.016406 " transform="matrix(1,0,0,-1,-169.868,780.2)"/>
<path style="fill:none;stroke-width:2;stroke-linecap:butt;stroke-linejoin:round;stroke:rgb(17.999268%,54.499817%,34.098816%);stroke-opacity:1;stroke-miterlimit:10;" d="M 189.977375 698.434375 C 262.950031 696.348438 319.418781 706.117969 359.387531 727.735156 " transform="matrix(1,0,0,-1,-169.868,780.2)"/>
<path style="fill-rule:evenodd;fill:rgb(17.999268%,54.499817%,34.098816%);fill-opacity:1;stroke-width:2;stroke-linecap:butt;stroke-linejoin:round;stroke:rgb(17.999268%,54.499817%,34.098816%);stroke-opacity:1;stroke-miterlimit:10;" d="M 359.387531 727.735156 L 352.121906 726.457813 L 354.340656 722.35625 Z M 359.387531 727.735156 " transform="matrix(1,0,0,-1,-169.868,780.2)"/>
<path style="fill:none;stroke-width:2;stroke-linecap:butt;stroke-linejoin:round;stroke:rgb(17.999268%,54.499817%,34.098816%);stroke-opacity:1;stroke-miterlimit:10;" d="M 238.414875 665.657031 C 294.379719 654.934375 340.172688 654.961719 375.789875 665.746875 " transform="matrix(1,0,0,-1,-169.868,780.2)"/>
<path style="fill-rule:evenodd;fill:rgb(17.999268%,54.499817%,34.098816%);fill-opacity:1;stroke-width:2;stroke-linecap:butt;stroke-linejoin:round;stroke:rgb(17.999268%,54.499817%,34.098816%);stroke-opacity:1;stroke-miterlimit:10;" d="M 375.789875 665.746875 L 368.414875 665.95 L 369.766438 661.489063 Z M 375.789875 665.746875 " transform="matrix(1,0,0,-1,-169.868,780.2)"/>
<g style="fill:rgb(74.499512%,74.499512%,74.499512%);fill-opacity:1;">
  <use xlink:href="#glyph0-1" x="83.365" y="178.53"/>
</g>
<g style="fill:rgb(54.499817%,0%,0%);fill-opacity:1;">
  <use xlink:href="#glyph0-2" x="247.135" y="177.892"/>
</g>
<g style="fill:rgb(74.499512%,74.499512%,74.499512%);fill-opacity:0.3;">
  <use xlink:href="#glyph0-3" x="122.237" y="22.408"/>
</g>
<path style="fill:none;stroke-width:1.2;stroke-linecap:butt;stroke-linejoin:round;stroke:rgb(0%,0%,50.19989%);stroke-opacity:1;stroke-miterlimit:10;" d="M 193.875813 708.891406 C 183.500813 710.60625 176.801594 706.520313 178.762531 697.696094 C 180.723469 688.875781 191.344563 675.313281 206.21175 666.98125 C 221.082844 658.645313 240.196125 655.54375 245.262531 660.60625 C 250.328938 665.672656 241.340656 678.907031 229.821125 689.282031 C 218.301594 699.657031 204.250813 707.172656 193.875813 708.891406 Z M 193.875813 708.891406 " transform="matrix(1,0,0,-1,-169.868,780.2)"/>
<g style="fill:rgb(0%,0%,50.19989%);fill-opacity:1;">
  <use xlink:href="#glyph0-1" x="26.704" y="130.703"/>
</g>
<g style="fill:rgb(0%,0%,50.19989%);fill-opacity:1;">
  <use xlink:href="#glyph1-1" x="37.234" y="125.497"/>
</g>
<g style="fill:rgb(17.999268%,54.499817%,34.098816%);fill-opacity:1;">
  <use xlink:href="#glyph0-3" x="121.524" y="99.817"/>
</g>
<g style="fill:rgb(17.999268%,54.499817%,34.098816%);fill-opacity:1;">
  <use xlink:href="#glyph2-1" x="129.979" y="99.817"/>
</g>
<g style="fill:rgb(17.999268%,54.499817%,34.098816%);fill-opacity:1;">
  <use xlink:href="#glyph3-1" x="133.964" y="103.902"/>
</g>
<g style="fill:rgb(17.999268%,54.499817%,34.098816%);fill-opacity:1;">
  <use xlink:href="#glyph4-1" x="141.436" y="101.024"/>
</g>
</g>
</svg>
